X:1
T:19.  Erstanden ist der Herre Christ
T:Hugo Distler
T:From 14th-15th cent. Latin, "Surrexit Christus hodie" 
T:19.  The Lord Is Risen from the Dead Erstanden ist der Herre Christ Easter
C:Hugo Distler
Z:From 14th-15th cent. Latin,
Z:"Surrexit Christus hodie"
%%score [ ( 1 2 ) ( 3 4 ) 5 ]
L:1/8
Q:1/4=120
M:none
K:D
V:1 treble nm="Sop."
V:2 treble 
V:3 treble nm="Alto"
V:4 treble 
V:5 bass nm="Bar."
V:1
 d2 (d4 d2) c2 c2 (d3 c B2) B2 | %1
w: 1. The Lord is ris- en from _ _ the|
w: 10. Now we may see His time _ _ has|
w: 11. You must now go to Ga- * * li-|
w: 12. We give you thanks, o an- * * gel,|
w: 13. Go back and tell Saint Pe- * * ter|
w: 14. Now sing we all this ho- * * ly|
w: 15. There- for we all sing joy- * * ful-|
w: 2. Three bles- sed wo- men sought _ _ His|
w: 3. It was our Lord whom they _ _ did|
w: 4. O an- gel, dear- est an- * * gel,|
w: 5. He has been from the grave _ _ re-|
w: 6. Show us our Lord who's ris'n _ _ to-|
w: 7. So step in- side and see _ _ the|
w: 8. The Lord is gone; he is _ _ not|
w: 9. Be- hold the cloth in which _ _ He|
 A4 z2 d2 B2 d2 (G3 A !breath!G2) e2 !breath!c2 e2 c2 e2 !breath!A2 f2 !breath!d2 f2 d2 c4 !fermata!c2 | %2
w: dead, al- le- lu- ia, _ _ al- le­, al- le- lu- ia, al- le­, al- le- lu- ia,|
w: come, * * * * * * * * * * * * * * * * * *|
w: lee, * * * * * * * * * * * * * * * * * *|
w: sweet, * * * * * * * * * * * * * * * * * *|
w: there, * * * * * * * * * * * * * * * * * *|
w: day, * * * * * * * * * * * * * * * * * *|
w: ly, * * * * * * * * * * * * * * * * * *|
w: tomb, * * * * * * * * * * * * * * * * * *|
w: seek, * * * * * * * * * * * * * * * * * *|
w: say, * * * * * * * * * * * * * * * * * *|
w: leased, * * * * * * * * * * * * * * * * * *|
w: day, * * * * * * * * * * * * * * * * * *|
w: place, * * * * * * * * * * * * * * * * * *|
w: here. * * * * * * * * * * * * * * * * * *|
w: lay, * * * * * * * * * * * * * * * * * *|
 z8 x8 c2 | %3
w: al-|
w: |
w: |
w: |
w: |
w: |
w: |
w: |
w: |
w: |
w: |
w: |
w: |
w: |
w: |
 A2 c2 (F3 G !breath!F2) d2 !breath!B2 d2 !breath!B2 d2 B2 d2 (G3 FGABc !breath!d2) A2 A2 B4 !fermata!d2 |] %4
w: le- lu- ia, _ _ al- le­, al- le­, al- le- lu- ia, _ _ _ _ _ _ al- le- lu- ia!|
w: |
w: |
w: |
w: |
w: |
w: |
w: |
w: |
w: |
w: |
w: |
w: |
w: |
w: |
V:2
 x20 | x44 | x18 | x38 G4 A2 |] %4
V:3
 z20 | %1
w: |
w: |
w: |
w: |
w: |
w: |
w: |
w: |
w: |
w: |
w: |
w: |
w: |
w: |
w: |
 z2 A2 F2 A2 (D3 E !breath!D2) B2 G2 B2 (E3 F !breath!E2) c2 A2 c2 (F3 ^GFE F2 G2 !fermata!^A2) | %2
w: al- le- lu- ia, _ _ al- le- lu- ia, _ _ al- le- lu- ia, _ _ _ _ _ _|
w: |
w: |
w: |
w: |
w: |
w: |
w: |
w: |
w: |
w: |
w: |
w: |
w: |
w: |
 F2 F2 F2 (=A4 =G2) F2 E2 E2 | %3
w:  (1.) the world to com- * fort, as He|
w: (10.) show us Lord Je- * sus, God's own|
w: (11.) and there the Sav- * ior you will|
w: (12.) that now our joy _ is made com-|
w: (13.) that His dis- ci- * ples joy may|
w: (14.) that Je- sus Christ _ is ris'n to-|
w: (15.) for Christ our Com- * fort- er shall|
w: (2.) in ear- ly morn- * ing, full of|
w: (3.) whose re- sur- rec- * tion now we|
w: (4.) where may I find _ my Lord this|
w: (5.) a- ris'n up- on _ this Eas- ter|
w: (6.) who has a- ris'n _ from death, you|
w: (7.) where our Lord's bod- * y had been|
w: (8.) my joy would be _ to see Him|
w: (9.) all tight- ly wrapped _ 'til this third|
 !breath!F2 A2 F2 A2 !breath!D2 A2 F2 A2 (D3 E !breath!D2) A2 F2 A2 !breath!D2 A2 !breath!F2 A2 F2 E4 !fermata!F2 |] %4
w: said, al- le- lu- ia, al- le- lu- ia, _ _ al- le- lu- ia, al- le­, al- le- lu- ia!|
w: Son, _ _ _ _ _ _ _ _ _ _ _ _ _ _ _ _ _ _ _ _|
w: see. _ _ _ _ _ _ _ _ _ _ _ _ _ _ _ _ _ _ _ _|
w: plete, _ _ _ _ _ _ _ _ _ _ _ _ _ _ _ _ _ _ _ _|
w: share, _ _ _ _ _ _ _ _ _ _ _ _ _ _ _ _ _ _ _ _|
w: day, _ _ _ _ _ _ _ _ _ _ _ _ _ _ _ _ _ _ _ _|
w: be, _ _ _ _ _ _ _ _ _ _ _ _ _ _ _ _ _ _ _ _|
w: gloom, _ _ _ _ _ _ _ _ _ _ _ _ _ _ _ _ _ _ _ _|
w: speak, _ _ _ _ _ _ _ _ _ _ _ _ _ _ _ _ _ _ _ _|
w: day? _ _ _ _ _ _ _ _ _ _ _ _ _ _ _ _ _ _ _ _|
w: feast, _ _ _ _ _ _ _ _ _ _ _ _ _ _ _ _ _ _ _ _|
w: say, _ _ _ _ _ _ _ _ _ _ _ _ _ _ _ _ _ _ _ _|
w: placed, _ _ _ _ _ _ _ _ _ _ _ _ _ _ _ _ _ _ _ _|
w: here, _ _ _ _ _ _ _ _ _ _ _ _ _ _ _ _ _ _ _ _|
w: day, _ _ _ _ _ _ _ _ _ _ _ _ _ _ _ _ _ _ _ _|
V:4
 x20 | x44 | x18 | x38 E4 D2 |] %4
V:5
 z20 | A,4 B,4 D4 !breath!C4 B,4 A,6 G,2 !fermata!F,16 | z18 | %3
w: |Al- le- lu- ia, al- le- lu- ia.||
 D,4 A,4 B,6 !breath!A,2 G,4 F,4 E,4 !fermata!D,16 |] %4
w: al- le- lu- ia, al- le- lu- ia!|

